assets/img/facebook-solo.svg

<svg height="18" viewBox="0 0 18 18" width="18" xmlns="http://www.w3.org/2000/svg"><path d="m7.5 7h-1.5v2h1.5v6h2.5v-6h1.821l.179-2h-2v-.8335c0-.4775.096-.6665.5575-.6665h1.4425v-2.5h-1.904c-1.798 0-2.596.7915-2.596 2.3075z"/><path d="m0 0h18v18h-18z" fill="none"/></svg>

<svg width="18px" height="18px" viewBox="0 0 18 18" version="1.1" xmlns="http://www.w3.org/2000/svg" xmlns:xlink="http://www.w3.org/1999/xlink">
    <title>Facebook</title>
    <path d="M7.5,7 L6,7 L6,9 L7.5,9 L7.5,15 L10,15 L10,9 L11.821,9 L12,7 L10,7 L10,6.1665 C10,5.689 10.096,5.5 10.5575,5.5 L12,5.5 L12,3 L10.096,3 C8.298,3 7.5,3.7915 7.5,5.3075 L7.5,7 Z" id="Shape" fill="#000000"></path>
    <rect id="Rectangle" fill="none" x="0" y="0" width="18" height="18"></rect>
</svg>
